icons/remotefiles.svg

<?xml version="1.0" encoding="utf-8"?>
<!-- Generator: Adobe Illustrator 25.1.0, SVG Export Plug-In . SVG Version: 6.00 Build 0)  -->
<svg version="1.1"
	 id="svg8" inkscape:version="1.0.1 (3bc2e813f5, 2020-09-07)" sodipodi:docname="template.svg" xmlns:cc="http://creativecommons.org/ns#" xmlns:dc="http://purl.org/dc/elements/1.1/" xmlns:inkscape="http://www.inkscape.org/namespaces/inkscape" xmlns:rdf="http://www.w3.org/1999/02/22-rdf-syntax-ns#" xmlns:sodipodi="http://sodipodi.sourceforge.net/DTD/sodipodi-0.dtd" xmlns:svg="http://www.w3.org/2000/svg"
	 xmlns="http://www.w3.org/2000/svg" xmlns:xlink="http://www.w3.org/1999/xlink" x="0px" y="0px" viewBox="0 0 48 48"
	 style="enable-background:new 0 0 48 48;" xml:space="preserve">
<style type="text/css">
	.st0{fill:none;stroke:#FFFFFF;stroke-linecap:round;stroke-linejoin:round;}
</style>
<sodipodi:namedview  bordercolor="#666666" borderopacity="1" gridtolerance="10" guidetolerance="10" id="namedview10" inkscape:current-layer="svg8" inkscape:cx="23.321338" inkscape:cy="23.762796" inkscape:document-rotation="0" inkscape:guide-bbox="true" inkscape:pageopacity="0" inkscape:pageshadow="2" inkscape:window-height="2098" inkscape:window-maximized="1" inkscape:window-width="3840" inkscape:window-x="0" inkscape:window-y="25" inkscape:zoom="1.6491" objecttolerance="10" pagecolor="#595959" showgrid="false" showguides="true">
	</sodipodi:namedview>
<g>
	<path id="path3527" sodipodi:nodetypes="ccccccccccccccccccc" class="st0" d="M11.5,18.8V8c0-1.9,1-3.5,3.5-3.5h15.5l9.4,9.1v23
		c0,2-1.7,3.3-3.5,3.3H14.2v3.6l-6.1-5.3l6.1-5.4v3.6h22.2V16.2h-8.7V8.1H15.1v10.7L11.5,18.8z"/>
	<path id="path3533" sodipodi:nodetypes="cccccccc" class="st0" d="M9.6,24.5h10.8l0-3.6l6.2,5.4l-6.2,5.3l0-3.6H9.6L9.6,24.5z"/>
</g>
</svg>

<svg xmlns="http://www.w3.org/2000/svg" viewBox="0 0 48 48"><defs><style>.a{fill:none;stroke:#fff;stroke-linecap:round;stroke-linejoin:round;}</style></defs><path class="a" d="M11.5,18.8V8A3.2,3.2,0,0,1,15,4.5H30.5l9.4,9.1v23a3.37,3.37,0,0,1-3.5,3.3H14.2v3.6L8.1,38.2l6.1-5.4v3.6H36.4V16.2H27.7V8.1H15.1V18.8Z"/><path class="a" d="M9.6,24.5H20.4V20.9l6.2,5.4-6.2,5.3V28H9.6Z"/></svg>
